assets/chess-sprites/cburnett/wn.svg

<svg xmlns="http://www.w3.org/2000/svg" width="45" height="45"><g stroke="#000" stroke-linecap="round"><path d="M22 10c10.5 1 16.5 8 16 29H15c0-9 10-6.5 8-21" fill="#fff" fill-rule="evenodd" stroke-width="1.5"/><path d="M24 18c.384 2.911-5.553 7.369-8 9-3 2-2.819 4.343-5 4-1.042-.944 1.413-3.038 0-3-1 0 .187 1.232-1 2-1 0-4.003 1-4-4 0-2 6-12 6-12s1.886-1.902 2-3.5c-.726-.994-.5-2-.5-3 1-1 3 2.5 3 2.5h2s.782-1.992 2.5-3c1 0 1 3 1 3" fill="#fff" fill-rule="evenodd" stroke-width="1.5" stroke-linejoin="round"/><path d="M9.5 25.5a.5.5 0 1 1-1 0 .5.5 0 1 1 1 0z" stroke-width="1.5" stroke-linejoin="round"/><path d="M14.933 15.75a.5 1.5 30 1 1-.866-.5.5 1.5 30 1 1 .866.5z" stroke-width="1.49997" stroke-linejoin="round"/><path d="M37 39c1-20-5.5-27.5-12-28.5" fill="none"/></g></svg>

<?xml version="1.0" encoding="UTF-8" standalone="no"?>
<!DOCTYPE svg PUBLIC "-//W3C//DTD SVG 1.1//EN" "http://www.w3.org/Graphics/SVG/1.1/DTD/svg11.dtd">
<svg
   xmlns:svg="http://www.w3.org/2000/svg"
   xmlns="http://www.w3.org/2000/svg"
   version="1.1"
   width="45"
   height="45"
   id="svg3128">
  <defs
     id="defs3130" />
  <g
     id="layer1">
    <path
       d="M 22,10 C 32.5,11 38.5,18 38,39 L 15,39 C 15,30 25,32.5 23,18"
       style="fill:#ffffff;fill-opacity:1;fill-rule:evenodd;stroke:#000000;stroke-width:1.5;stroke-linecap:round;stroke-linejoin:miter;stroke-miterlimit:4;stroke-dasharray:none;stroke-opacity:1"
       id="path3491" />
    <path
       d="M 24,18 C 24.384,20.911 18.447,25.369 16,27 C 13,29 13.181,31.343 11,31 C 9.9583,30.056 12.413,27.962 11,28 C 10,28 11.187,29.232 10,30 C 9,30 5.9968,31 6,26 C 6,24 12,14 12,14 C 12,14 13.886,12.098 14,10.5 C 13.274,9.5056 13.5,8.5 13.5,7.5 C 14.5,6.5 16.5,10 16.5,10 L 18.5,10 C 18.5,10 19.282,8.0081 21,7 C 22,7 22,10 22,10"
       style="fill:#ffffff;fill-opacity:1;fill-rule:evenodd;stroke:#000000;stroke-width:1.5;stroke-linecap:round;stroke-linejoin:round;stroke-miterlimit:4;stroke-dasharray:none;stroke-opacity:1"
       id="path3495" />
    <path
       d="M 9 23.5 A 0.5 0.5 0 1 1  8,23.5 A 0.5 0.5 0 1 1  9 23.5 z"
       transform="translate(0.5,2)"
       style="opacity:1;fill:#000000;fill-opacity:1;stroke:#000000;stroke-width:1.5;stroke-linecap:round;stroke-linejoin:round;stroke-miterlimit:4;stroke-dasharray:none;stroke-opacity:1"
       id="path3499" />
    <path
       d="M 15 15.5 A 0.5 1.5 0 1 1  14,15.5 A 0.5 1.5 0 1 1  15 15.5 z"
       transform="matrix(0.866,0.5,-0.5,0.866,9.6926,-5.1734)"
       style="opacity:1;fill:#000000;fill-opacity:1;stroke:#000000;stroke-width:1.5;stroke-linecap:round;stroke-linejoin:round;stroke-miterlimit:4;stroke-dasharray:none;stroke-opacity:1"
       id="path3501" />
    <path
       d="M 37,39 C 38,19 31.5,11.5 25,10.5"
       style="fill:none;fill-opacity:0.75;fill-rule:evenodd;stroke:#000000;stroke-width:1;stroke-linecap:round;stroke-linejoin:miter;stroke-miterlimit:4;stroke-dasharray:none;stroke-opacity:1"
       id="path8049" />
  </g>
</svg>
